Newaita-dark/apps/16/com.github.jeremyvaartjes.comgen.svg

<svg height="16" viewBox="0 0 16 16" width="16" xmlns="http://www.w3.org/2000/svg" xmlns:xlink="http://www.w3.org/1999/xlink"><linearGradient id="a" gradientUnits="userSpaceOnUse" x1="7.93826" x2="7.93826" y1="14.0169685" y2="14.67849050002"><stop offset="0" stop-opacity=".27451"/><stop offset="1" stop-opacity="0"/></linearGradient><linearGradient id="b"><stop offset="0" stop-opacity=".313726"/><stop offset=".222222" stop-opacity=".27451"/><stop offset="1" stop-opacity="0"/></linearGradient><radialGradient id="c" cx="450.908936" cy="189.579361" gradientTransform="matrix(.00000009 -.0390662 -.0703192 -.00000005 26.065324 31.797666)" gradientUnits="userSpaceOnUse" r="21.166656" xlink:href="#b"/><radialGradient id="d" cx="450.908936" cy="189.579361" gradientTransform="matrix(-.00000009 .0390662 .0703192 .00000005 -10.188807 -3.763739)" gradientUnits="userSpaceOnUse" r="21.166656" xlink:href="#b"/><radialGradient id="e" cx="450.908936" cy="189.579361" gradientTransform="matrix(-.00000009 -.0390662 .0703192 -.00000005 -10.188807 31.797666)" gradientUnits="userSpaceOnUse" r="21.166656" xlink:href="#b"/><radialGradient id="f" cx="450.908936" cy="189.579361" gradientTransform="matrix(.00000009 .0390662 -.0703192 .00000005 26.065323 -3.76374)" gradientUnits="userSpaceOnUse" r="21.166656" xlink:href="#b"/><linearGradient id="g" gradientUnits="userSpaceOnUse" x1="5.29217449998" x2="5.29217449998" y1="14.0169675" y2="1.44805300003"><stop offset="0" stop-color="#e0e0e0"/><stop offset="1" stop-color="#eee"/></linearGradient><linearGradient id="h" gradientUnits="userSpaceOnUse" x1="254" x2="254" y1="233.5" y2="-168.666672"><stop offset="0" stop-color="#616161"/><stop offset="1" stop-color="#757575"/></linearGradient><path d="m2.976562 13.96875h9.921876v.734375h-9.921876zm0 0" fill="url(#a)"/><path d="m12.898438 14.015625h1.324218v-.660156h-1.324218zm0 0" fill="url(#c)"/><path d="m2.976562 14.015625h-1.324218v.664063h1.324218zm0 0" fill="url(#d)"/><path d="m2.976562 14.015625h-1.324218v-.660156h1.324218zm0 0" fill="url(#e)"/><path d="m12.898438 14.015625h1.324218v.664063h-1.324218zm0 0" fill="url(#f)"/><path d="m2.316406 1.449219h11.246094c.363281 0 .660156.296875.660156.660156v11.246094c0 .367187-.296875.660156-.660156.660156h-11.246094c-.367187 0-.664062-.292969-.664062-.660156v-11.246094c0-.363281.296875-.660156.664062-.660156zm0 0" fill="url(#g)"/><path d="m2.316406 1.496094c-.367187 0-.664062.292968-.664062.660156v.082031c0-.367187.296875-.660156.664062-.660156h11.246094c.363281 0 .660156.292969.660156.660156v-.082031c0-.367188-.296875-.660156-.660156-.660156zm0 0" fill="#f8f8f8" fill-opacity=".392157"/><path d="m2.316406 13.976562c-.367187 0-.664062-.296874-.664062-.664062v-.082031c0 .367187.296875.664062.664062.664062h11.246094c.363281 0 .660156-.296875.660156-.664062v.082031c0 .367188-.296875.664062-.660156.664062zm0 0" fill-opacity=".196078"/><g fill="none" stroke-linecap="round" transform="matrix(.031253 0 0 .031253 0 6.719392)"><path d="m74.117922-168.629428h359.840637c11.62389 0 21.122983 9.499093 21.122983 21.122983v359.840637c0 11.748878-9.499093 21.122982-21.122983 21.122982h-359.840637c-11.748878 0-21.247971-9.374104-21.247971-21.122982v-359.840637c0-11.62389 9.499093-21.122983 21.247971-21.122983zm0 0" stroke="#212121" stroke-width="3"/><path d="m158.734842 127.717272 74.117922-190.606798" stroke="url(#h)" stroke-linejoin="round" stroke-width="31"/><path d="m275.223717 127.717272 73.992934-190.606798" stroke="url(#h)" stroke-linejoin="round" stroke-width="31"/></g><path d="m7.257812 4.265625c-.195312.007813-.363281.132813-.433593.316406l-2.3125 5.953125c-.042969.09375-.046875.203125-.023438.304688.007813-.023438.011719-.042969.023438-.0625l2.3125-5.953125c.070312-.183594.238281-.308594.433593-.316407.230469-.011718.433594.140626.488282.363282.039062-.148438.003906-.308594-.089844-.425782-.097656-.121093-.246094-.1875-.398438-.179687zm3.636719 0c-.191406.007813-.363281.132813-.429687.316406l-2.316406 5.953125c-.039063.09375-.046876.199219-.019532.300782.003906-.019532.011719-.039063.019532-.058594l2.316406-5.953125c.066406-.183594.238281-.308594.429687-.316407.230469-.011718.433594.140626.492188.363282.039062-.148438.003906-.308594-.09375-.425782-.097657-.121093-.242188-.1875-.398438-.179687zm0 0" fill="#fff" fill-opacity=".392157"/><path d="m7.742188 4.898438c-.003907.011718-.007813.027343-.015626.039062l-2.3125 5.957031c-.074218.195313-.261718.320313-.472656.3125-.207031-.003906-.386718-.144531-.445312-.34375-.074219.25.0625.515625.308594.597657.246093.082031.515624-.042969.609374-.289063l2.3125-5.953125c.042969-.101562.046876-.214844.015626-.320312zm0 0" fill-opacity=".235294"/><path d="m11.382812 4.898438c-.003906.011718-.011718.027343-.015624.039062l-2.316407 5.957031c-.074219.191407-.261719.320313-.46875.3125-.207031-.007812-.386719-.144531-.449219-.34375-.074218.25.0625.511719.3125.59375.246094.085938.511719-.042969.605469-.285156l2.316407-5.953125c.039062-.101562.046874-.214844.015624-.320312zm0 0" fill-opacity=".235294"/><path d="m232.227823-78.513034c-6.249403.249976-11.62389 4.249594-13.873675 10.124033l-73.992934 190.48181c-2.124797 5.124511-1.374869 11.123938 2.124797 15.49852s9.124129 6.49938 14.623604 5.624463c5.499475-.874916 10.124033-4.624558 12.123842-9.874057l73.992934-190.606798c1.999809-4.874534 1.374869-10.374009-1.624845-14.748592-3.124701-4.249594-8.124224-6.749355-13.373723-6.499379zm0 0" fill="none" stroke="#212121" stroke-linecap="round" stroke-linejoin="round" stroke-width="3" transform="matrix(.031253 0 0 .031253 0 6.719392)"/><path d="m348.591711-78.513034c-6.124415.249976-11.62389 4.249594-13.748687 10.124033l-74.117922 190.48181c-2.124797 5.124511-1.249881 10.99895 2.249785 15.373532s8.999141 6.624368 14.498616 5.749451c5.499474-.874916 10.124033-4.749546 12.123842-9.874057l74.117922-190.606798c1.999809-4.874534 1.374869-10.374009-1.749833-14.748592-2.999714-4.249594-7.999236-6.749355-13.373723-6.499379zm0 0" fill="none" stroke="#212121" stroke-linecap="round" stroke-linejoin="round" stroke-width="3" transform="matrix(.031253 0 0 .031253 0 6.719392)"/></svg>

<?xml version="1.0" encoding="UTF-8"?>
<svg xmlns="http://www.w3.org/2000/svg" xmlns:xlink="http://www.w3.org/1999/xlink" width="16px" height="16px" viewBox="0 0 16 16" version="1.1">
<defs>
<linearGradient id="linear0" gradientUnits="userSpaceOnUse" x1="254" y1="233.5" x2="254" y2="254.666672" gradientTransform="matrix(0.031253,0,0,0.031253,-0.00000190753,6.719393)">
<stop offset="0" style="stop-color:rgb(0%,0%,0%);stop-opacity:0.27451;"/>
<stop offset="1" style="stop-color:rgb(0%,0%,0%);stop-opacity:0;"/>
</linearGradient>
<radialGradient id="radial0" gradientUnits="userSpaceOnUse" cx="450.908936" cy="189.579361" fx="450.908936" fy="189.579361" r="21.166656" gradientTransform="matrix(0.0000000870852,-0.0390662,-0.0703192,-0.0000000507693,26.065324,31.797666)">
<stop offset="0" style="stop-color:rgb(0%,0%,0%);stop-opacity:0.313726;"/>
<stop offset="0.222222" style="stop-color:rgb(0%,0%,0%);stop-opacity:0.27451;"/>
<stop offset="1" style="stop-color:rgb(0%,0%,0%);stop-opacity:0;"/>
</radialGradient>
<radialGradient id="radial1" gradientUnits="userSpaceOnUse" cx="450.908936" cy="189.579361" fx="450.908936" fy="189.579361" r="21.166656" gradientTransform="matrix(-0.0000000870852,0.0390662,0.0703192,0.0000000507693,-10.188807,-3.763739)">
<stop offset="0" style="stop-color:rgb(0%,0%,0%);stop-opacity:0.313726;"/>
<stop offset="0.222222" style="stop-color:rgb(0%,0%,0%);stop-opacity:0.27451;"/>
<stop offset="1" style="stop-color:rgb(0%,0%,0%);stop-opacity:0;"/>
</radialGradient>
<radialGradient id="radial2" gradientUnits="userSpaceOnUse" cx="450.908936" cy="189.579361" fx="450.908936" fy="189.579361" r="21.166656" gradientTransform="matrix(-0.0000000870852,-0.0390662,0.0703192,-0.0000000507693,-10.188807,31.797666)">
<stop offset="0" style="stop-color:rgb(0%,0%,0%);stop-opacity:0.313726;"/>
<stop offset="0.222222" style="stop-color:rgb(0%,0%,0%);stop-opacity:0.27451;"/>
<stop offset="1" style="stop-color:rgb(0%,0%,0%);stop-opacity:0;"/>
</radialGradient>
<radialGradient id="radial3" gradientUnits="userSpaceOnUse" cx="450.908936" cy="189.579361" fx="450.908936" fy="189.579361" r="21.166656" gradientTransform="matrix(0.0000000870852,0.0390662,-0.0703192,0.0000000507693,26.065323,-3.76374)">
<stop offset="0" style="stop-color:rgb(0%,0%,0%);stop-opacity:0.313726;"/>
<stop offset="0.222222" style="stop-color:rgb(0%,0%,0%);stop-opacity:0.27451;"/>
<stop offset="1" style="stop-color:rgb(0%,0%,0%);stop-opacity:0;"/>
</radialGradient>
<linearGradient id="linear1" gradientUnits="userSpaceOnUse" x1="169.333328" y1="233.5" x2="169.333328" y2="-168.666656" gradientTransform="matrix(0.031253,0,0,0.031253,0,6.719392)">
<stop offset="0" style="stop-color:rgb(87.843138%,87.843138%,87.843138%);stop-opacity:1;"/>
<stop offset="1" style="stop-color:rgb(93.333334%,93.333334%,93.333334%);stop-opacity:1;"/>
</linearGradient>
<linearGradient id="linear2" gradientUnits="userSpaceOnUse" x1="254" y1="233.5" x2="254" y2="-168.666672" >
<stop offset="0" style="stop-color:rgb(38.039216%,38.039216%,38.039216%);stop-opacity:1;"/>
<stop offset="1" style="stop-color:rgb(45.882353%,45.882353%,45.882353%);stop-opacity:1;"/>
</linearGradient>
<linearGradient id="linear3" gradientUnits="userSpaceOnUse" x1="254" y1="233.5" x2="254" y2="-168.666672" >
<stop offset="0" style="stop-color:rgb(38.039216%,38.039216%,38.039216%);stop-opacity:1;"/>
<stop offset="1" style="stop-color:rgb(45.882353%,45.882353%,45.882353%);stop-opacity:1;"/>
</linearGradient>
</defs>
<g id="surface1">
<path style=" stroke:none;fill-rule:nonzero;fill:url(#linear0);" d="M 2.976562 13.96875 L 12.898438 13.96875 L 12.898438 14.703125 L 2.976562 14.703125 Z M 2.976562 13.96875 "/>
<path style=" stroke:none;fill-rule:nonzero;fill:url(#radial0);" d="M 12.898438 14.015625 L 14.222656 14.015625 L 14.222656 13.355469 L 12.898438 13.355469 Z M 12.898438 14.015625 "/>
<path style=" stroke:none;fill-rule:nonzero;fill:url(#radial1);" d="M 2.976562 14.015625 L 1.652344 14.015625 L 1.652344 14.679688 L 2.976562 14.679688 Z M 2.976562 14.015625 "/>
<path style=" stroke:none;fill-rule:nonzero;fill:url(#radial2);" d="M 2.976562 14.015625 L 1.652344 14.015625 L 1.652344 13.355469 L 2.976562 13.355469 Z M 2.976562 14.015625 "/>
<path style=" stroke:none;fill-rule:nonzero;fill:url(#radial3);" d="M 12.898438 14.015625 L 14.222656 14.015625 L 14.222656 14.679688 L 12.898438 14.679688 Z M 12.898438 14.015625 "/>
<path style=" stroke:none;fill-rule:nonzero;fill:url(#linear1);" d="M 2.316406 1.449219 L 13.5625 1.449219 C 13.925781 1.449219 14.222656 1.746094 14.222656 2.109375 L 14.222656 13.355469 C 14.222656 13.722656 13.925781 14.015625 13.5625 14.015625 L 2.316406 14.015625 C 1.949219 14.015625 1.652344 13.722656 1.652344 13.355469 L 1.652344 2.109375 C 1.652344 1.746094 1.949219 1.449219 2.316406 1.449219 Z M 2.316406 1.449219 "/>
<path style=" stroke:none;fill-rule:nonzero;fill:rgb(97.254902%,97.254902%,97.254902%);fill-opacity:0.392157;" d="M 2.316406 1.496094 C 1.949219 1.496094 1.652344 1.789062 1.652344 2.15625 L 1.652344 2.238281 C 1.652344 1.871094 1.949219 1.578125 2.316406 1.578125 L 13.5625 1.578125 C 13.925781 1.578125 14.222656 1.871094 14.222656 2.238281 L 14.222656 2.15625 C 14.222656 1.789062 13.925781 1.496094 13.5625 1.496094 Z M 2.316406 1.496094 "/>
<path style=" stroke:none;fill-rule:nonzero;fill:rgb(0%,0%,0%);fill-opacity:0.196078;" d="M 2.316406 13.976562 C 1.949219 13.976562 1.652344 13.679688 1.652344 13.3125 L 1.652344 13.230469 C 1.652344 13.597656 1.949219 13.894531 2.316406 13.894531 L 13.5625 13.894531 C 13.925781 13.894531 14.222656 13.597656 14.222656 13.230469 L 14.222656 13.3125 C 14.222656 13.679688 13.925781 13.976562 13.5625 13.976562 Z M 2.316406 13.976562 "/>
<path style="fill:none;stroke-width:3;stroke-linecap:round;stroke-linejoin:miter;stroke:rgb(12.941177%,12.941177%,12.941177%);stroke-opacity:1;stroke-miterlimit:4;" d="M 74.117922 -168.629428 L 433.958559 -168.629428 C 445.582449 -168.629428 455.081542 -159.130335 455.081542 -147.506445 L 455.081542 212.334192 C 455.081542 224.08307 445.582449 233.457174 433.958559 233.457174 L 74.117922 233.457174 C 62.369044 233.457174 52.869951 224.08307 52.869951 212.334192 L 52.869951 -147.506445 C 52.869951 -159.130335 62.369044 -168.629428 74.117922 -168.629428 Z M 74.117922 -168.629428 " transform="matrix(0.031253,0,0,0.031253,0,6.719392)"/>
<path style="fill:none;stroke-width:31;stroke-linecap:round;stroke-linejoin:round;stroke:url(#linear2);stroke-miterlimit:4;" d="M 158.734842 127.717272 L 232.852764 -62.889526 " transform="matrix(0.031253,0,0,0.031253,0,6.719392)"/>
<path style="fill:none;stroke-width:31;stroke-linecap:round;stroke-linejoin:round;stroke:url(#linear3);stroke-miterlimit:4;" d="M 275.223717 127.717272 L 349.216651 -62.889526 " transform="matrix(0.031253,0,0,0.031253,0,6.719392)"/>
<path style=" stroke:none;fill-rule:nonzero;fill:rgb(100%,100%,100%);fill-opacity:0.392157;" d="M 7.257812 4.265625 C 7.0625 4.273438 6.894531 4.398438 6.824219 4.582031 L 4.511719 10.535156 C 4.46875 10.628906 4.464844 10.738281 4.488281 10.839844 C 4.496094 10.816406 4.5 10.796875 4.511719 10.777344 L 6.824219 4.824219 C 6.894531 4.640625 7.0625 4.515625 7.257812 4.507812 C 7.488281 4.496094 7.691406 4.648438 7.746094 4.871094 C 7.785156 4.722656 7.75 4.5625 7.65625 4.445312 C 7.558594 4.324219 7.410156 4.257812 7.257812 4.265625 Z M 10.894531 4.265625 C 10.703125 4.273438 10.53125 4.398438 10.464844 4.582031 L 8.148438 10.535156 C 8.109375 10.628906 8.101562 10.734375 8.128906 10.835938 C 8.132812 10.816406 8.140625 10.796875 8.148438 10.777344 L 10.464844 4.824219 C 10.53125 4.640625 10.703125 4.515625 10.894531 4.507812 C 11.125 4.496094 11.328125 4.648438 11.386719 4.871094 C 11.425781 4.722656 11.390625 4.5625 11.292969 4.445312 C 11.195312 4.324219 11.050781 4.257812 10.894531 4.265625 Z M 10.894531 4.265625 "/>
<path style=" stroke:none;fill-rule:nonzero;fill:rgb(0%,0%,0%);fill-opacity:0.235294;" d="M 7.742188 4.898438 C 7.738281 4.910156 7.734375 4.925781 7.726562 4.9375 L 5.414062 10.894531 C 5.339844 11.089844 5.152344 11.214844 4.941406 11.207031 C 4.734375 11.203125 4.554688 11.0625 4.496094 10.863281 C 4.421875 11.113281 4.558594 11.378906 4.804688 11.460938 C 5.050781 11.542969 5.320312 11.417969 5.414062 11.171875 L 7.726562 5.21875 C 7.769531 5.117188 7.773438 5.003906 7.742188 4.898438 Z M 7.742188 4.898438 "/>
<path style=" stroke:none;fill-rule:nonzero;fill:rgb(0%,0%,0%);fill-opacity:0.235294;" d="M 11.382812 4.898438 C 11.378906 4.910156 11.371094 4.925781 11.367188 4.9375 L 9.050781 10.894531 C 8.976562 11.085938 8.789062 11.214844 8.582031 11.207031 C 8.375 11.199219 8.195312 11.0625 8.132812 10.863281 C 8.058594 11.113281 8.195312 11.375 8.445312 11.457031 C 8.691406 11.542969 8.957031 11.414062 9.050781 11.171875 L 11.367188 5.21875 C 11.40625 5.117188 11.414062 5.003906 11.382812 4.898438 Z M 11.382812 4.898438 "/>
<path style="fill:none;stroke-width:3;stroke-linecap:round;stroke-linejoin:round;stroke:rgb(12.941177%,12.941177%,12.941177%);stroke-opacity:1;stroke-miterlimit:4;" d="M 232.227823 -78.513034 C 225.97842 -78.263058 220.603933 -74.26344 218.354148 -68.389001 L 144.361214 122.092809 C 142.236417 127.21732 142.986345 133.216747 146.486011 137.591329 C 149.985677 141.965911 155.61014 144.090709 161.109615 143.215792 C 166.60909 142.340876 171.233648 138.591234 173.233457 133.341735 L 247.226391 -57.265063 C 249.2262 -62.139597 248.60126 -67.639072 245.601546 -72.013655 C 242.476845 -76.263249 237.477322 -78.76301 232.227823 -78.513034 Z M 232.227823 -78.513034 " transform="matrix(0.031253,0,0,0.031253,0,6.719392)"/>
<path style="fill:none;stroke-width:3;stroke-linecap:round;stroke-linejoin:round;stroke:rgb(12.941177%,12.941177%,12.941177%);stroke-opacity:1;stroke-miterlimit:4;" d="M 348.591711 -78.513034 C 342.467296 -78.263058 336.967821 -74.26344 334.843024 -68.389001 L 260.725102 122.092809 C 258.600305 127.21732 259.475221 133.091759 262.974887 137.466341 C 266.474553 141.840923 271.974028 144.090709 277.473503 143.215792 C 282.972977 142.340876 287.597536 138.466246 289.597345 133.341735 L 363.715267 -57.265063 C 365.715076 -62.139597 365.090136 -67.639072 361.965434 -72.013655 C 358.96572 -76.263249 353.966198 -78.76301 348.591711 -78.513034 Z M 348.591711 -78.513034 " transform="matrix(0.031253,0,0,0.031253,0,6.719392)"/>
</g>
</svg>
